X: 19
T: Merry Blacksmith, The
Z: tziguk
S: https://thesession.org/tunes/72#setting53297
R: reel
M: 4/4
L: 1/8
K: Dmaj
|:d3A BAFA|ABdA BAFA|ABde fded|Beed egfe|
d3A BAFA|ABdA BAFA|ABde fdec|dBAG FD D2:|
|:a3 g f3 e|d3 A BAFA|ABde fded|Beed efge|
a3 g f3 e|d3 A BAFA|ABde fdec|dBAG FD D2:|

